X: 39054
T: Swedish
R: waltz
M: 3/4
K: Adorian
|:A2 c2 e2|g4 fg|a2 f2 ed|ef ed cB|
A2 c2 e2|g4 fg|a2 f2 ed|ef e4:|
|:a2 ec eg|f2 ed c2|B2 AG AB|AB cd eg|
a2 ec eg|f2 ed c2|B2 AG AB|A6:|

